images/svg/Logo3.svg

<svg width="106" height="60" viewBox="0 0 106 60" fill="none" xmlns="http://www.w3.org/2000/svg">
<path d="M26.7569 44.7351C27.0006 45.0113 27.1304 45.3571 27.1236 45.7121C27.136 45.9436 27.0914 46.1748 26.993 46.3884C26.8947 46.602 26.7451 46.7926 26.5554 46.9461C26.082 47.2735 25.4956 47.4335 24.9037 47.3968H22V41.2053H24.8442C25.4057 41.1711 25.9626 41.3165 26.42 41.6167C26.6036 41.7575 26.7491 41.9354 26.8448 42.1364C26.9406 42.3375 26.984 42.5561 26.9716 42.7751C26.9883 43.1167 26.8712 43.4524 26.6413 43.7219C26.4206 43.9679 26.1156 44.1384 25.7758 44.2058C26.161 44.2702 26.5087 44.4578 26.7569 44.7351ZM23.3511 43.8005H24.5667C24.843 43.8192 25.1174 43.7462 25.3397 43.5948C25.431 43.5191 25.502 43.4251 25.5473 43.3202C25.5925 43.2153 25.6108 43.1023 25.6007 42.9899C25.6093 42.8779 25.5906 42.7655 25.5461 42.6609C25.5015 42.5563 25.4322 42.4621 25.343 42.385C25.1141 42.2293 24.8312 42.1551 24.5469 42.1763H23.3511V43.8005ZM25.4587 46.1748C25.5562 46.0973 25.6329 46.0002 25.6828 45.8911C25.7326 45.782 25.7543 45.6638 25.7461 45.5457C25.7535 45.4263 25.7309 45.3069 25.6799 45.1968C25.6289 45.0866 25.551 44.9887 25.4521 44.9105C25.2142 44.7491 24.9217 44.6698 24.6262 44.6867H23.3511V46.3896H24.6427C24.9334 46.405 25.2212 46.3292 25.4587 46.1748Z" fill="#AFB1B8"/>
<path d="M32.5709 47.3968L30.9886 44.9771H30.394V47.3968H29.033V41.2054H31.6096C32.2591 41.1638 32.9012 41.3522 33.4034 41.7316C33.7635 42.0677 33.9808 42.5105 34.0159 42.9802C34.051 43.4499 33.9018 43.9157 33.595 44.2935C33.2771 44.627 32.8428 44.8493 32.3661 44.9227L34.0508 47.3968H32.5709ZM30.394 44.1332H31.5072C32.2802 44.1332 32.6667 43.8207 32.6667 43.1956C32.6746 43.0679 32.6534 42.9402 32.6045 42.8204C32.5556 42.7007 32.48 42.5915 32.3826 42.4999C32.1383 42.3139 31.8237 42.2237 31.5072 42.2489H30.3807L30.394 44.1332Z" fill="#AFB1B8"/>
<path d="M40.0102 46.1506H37.2981L36.8191 47.3968H35.392L37.8828 41.2749H39.4255L41.9063 47.3968H40.4793L40.0102 46.1506ZM39.6468 45.213L38.6558 42.5997L37.6648 45.213H39.6468Z" fill="#AFB1B8"/>
<path d="M49.3224 47.3968H47.9713L44.9421 43.1865V47.3968H43.5943V41.2053H44.9421L47.9713 45.4398V41.2053H49.3224V47.3968Z" fill="#AFB1B8"/>
<path d="M57.0326 45.9148C56.7532 46.3822 56.3276 46.7625 55.8103 47.0067C55.2222 47.2786 54.5695 47.4127 53.9109 47.3968H51.506V41.2054H53.9109C54.5684 41.1896 55.2202 41.3204 55.8103 41.5865C56.3275 41.8251 56.7536 42.2016 57.0326 42.6663C57.3107 43.1698 57.4556 43.7262 57.4556 44.2905C57.4556 44.8548 57.3107 45.4112 57.0326 45.9148ZM55.4866 45.7665C55.8722 45.3552 56.0842 44.8311 56.0842 44.289C56.0842 43.7469 55.8722 43.2228 55.4866 42.8115C55.0205 42.4389 54.4127 42.2498 53.7952 42.2852H52.8571V46.2928H53.7952C54.4127 46.3282 55.0205 46.1391 55.4866 45.7665Z" fill="#AFB1B8"/>
<path d="M40.8558 6.7666C40.8558 6.7666 58.2945 12.7947 57.9245 21.5178V36.2721C57.9245 36.2721 40.4991 30.2409 40.8624 21.5178L40.8558 6.7666Z" fill="#AFB1B8"/>
<path d="M73.4603 32.8178C76.7538 30.7426 80.5633 29.4571 84.5399 29.0793V24.4607C79.9579 26.0777 76.0709 29.0096 73.4603 32.8178Z" fill="#AFB1B8"/>
<path d="M71.4816 34.2094C74.1773 29.2395 78.8505 25.4045 84.54 23.493V10.1846C84.54 10.1846 59.705 18.7716 60.2303 31.1938V52.2C60.2303 52.2 61.3369 51.8159 63.0778 51.096C63.0778 50.4246 63.0778 49.747 63.1571 49.0665C63.6711 43.2995 66.6654 37.9554 71.4816 34.2094Z" fill="#AFB1B8"/>
<path d="M69.1197 42.013C69.2502 40.5561 69.5413 39.1151 69.9885 37.7119C66.9896 40.947 65.1734 44.9613 64.7956 49.1905C64.7592 49.5897 64.7394 49.989 64.7295 50.4003C66.14 49.7803 67.7818 49.006 69.5062 48.0956C69.0662 46.0947 68.936 44.0471 69.1197 42.013Z" fill="#AFB1B8"/>
<path d="M70.1075 42.0886C69.9421 43.9289 70.0454 45.7812 70.4147 47.5965C77.1999 43.8792 84.8241 38.1354 84.5301 31.1938V30.5889C79.6824 31.0855 75.1468 33.0259 71.6204 36.1119C70.7948 38.0243 70.2849 40.0386 70.1075 42.0886Z" fill="#AFB1B8"/>
</svg>

<svg width="106" height="60" fill="none" xmlns="http://www.w3.org/2000/svg"><path d="M26.757 44.735c.244.276.373.622.367.977a1.43 1.43 0 0 1-.131.676 1.557 1.557 0 0 1-.438.558 2.626 2.626 0 0 1-1.651.45H22v-6.19h2.844a2.593 2.593 0 0 1 1.576.41c.184.142.33.32.425.52.096.201.139.42.127.64.016.34-.1.676-.33.946-.221.246-.526.416-.866.484.385.064.733.252.98.53Zm-3.406-.934h1.216c.276.018.55-.055.773-.206a.738.738 0 0 0 .207-.275.68.68 0 0 0 .054-.33.702.702 0 0 0-.055-.33.759.759 0 0 0-.203-.275 1.254 1.254 0 0 0-.796-.209H23.35V43.8Zm2.108 2.374a.776.776 0 0 0 .224-.284.712.712 0 0 0 .063-.345.722.722 0 0 0-.066-.35.788.788 0 0 0-.228-.285 1.34 1.34 0 0 0-.826-.224h-1.275v1.703h1.292c.29.015.578-.06.816-.215ZM32.57 47.397l-1.581-2.42h-.595v2.42h-1.361v-6.192h2.577a2.698 2.698 0 0 1 1.793.527c.36.336.578.779.613 1.248.035.47-.114.936-.421 1.314a2.147 2.147 0 0 1-1.229.629l1.685 2.474h-1.48Zm-2.176-3.264h1.113c.773 0 1.16-.312 1.16-.937a.852.852 0 0 0-.063-.376.917.917 0 0 0-.221-.32 1.282 1.282 0 0 0-.876-.251h-1.126l.013 1.884ZM40.01 46.15h-2.712l-.479 1.247h-1.427l2.49-6.122h1.544l2.48 6.122H40.48l-.469-1.246Zm-.363-.937-.991-2.613-.991 2.613h1.982ZM49.322 47.397h-1.35l-3.03-4.21v4.21h-1.348v-6.192h1.348l3.03 4.235v-4.235h1.35v6.192ZM57.033 45.915c-.28.467-.705.848-1.223 1.092a4.288 4.288 0 0 1-1.9.39h-2.404v-6.192h2.405a4.373 4.373 0 0 1 1.9.382c.517.238.943.615 1.222 1.08.278.503.423 1.06.423 1.623 0 .565-.145 1.121-.423 1.625Zm-1.546-.148c.385-.412.597-.936.597-1.478 0-.542-.212-1.066-.597-1.477a2.488 2.488 0 0 0-1.692-.527h-.938v4.008h.938a2.488 2.488 0 0 0 1.692-.526ZM40.856 6.767s17.438 6.028 17.069 14.75v14.755s-17.426-6.031-17.063-14.754l-.006-14.751ZM73.46 32.818c3.294-2.075 7.103-3.36 11.08-3.739v-4.618c-4.582 1.617-8.47 4.549-11.08 8.357Z" fill="#AFB1B8"/><path d="M71.482 34.21c2.695-4.97 7.368-8.806 13.058-10.717V10.185s-24.835 8.587-24.31 21.009V52.2s1.107-.384 2.848-1.104c0-.671 0-1.349.08-2.03.513-5.767 3.507-11.11 8.324-14.857Z" fill="#AFB1B8"/><path d="M69.12 42.013a20.05 20.05 0 0 1 .868-4.301c-2.998 3.235-4.815 7.25-5.192 11.478-.037.4-.057.799-.067 1.21a74.697 74.697 0 0 0 4.777-2.304c-.44-2.001-.57-4.049-.386-6.083ZM70.108 42.089a19.051 19.051 0 0 0 .307 5.508c6.785-3.718 14.41-9.462 14.115-16.403v-.605c-4.848.497-9.383 2.437-12.91 5.523a19.259 19.259 0 0 0-1.513 5.977Z" fill="#AFB1B8"/></svg>
